X: 23
T:Clog Double
R:reel
S:Jean Carignan; Hommage a Joseph Allard, Philo
M:C|
L:1/8
Q:1/4=200
K:Bb
|:B2dB fBdB|gBaB bBAB|FBAB GcBc|AecA BAGA|
B2dB fBdB|gBaB bBAB|FBAB GcBc|AecA BFGA:|
|:B2dB fBdB|bagf =egfd|B2dB fBdB|AecA FAcA|
B2dB fBdB|bagf =egfd|B2dB fBdB|AecA BFGA:|
